Newaita-dark/apps/64/ghex.svg

<svg height="64pt" viewBox="0 0 64 64" width="64pt" xmlns="http://www.w3.org/2000/svg" xmlns:xlink="http://www.w3.org/1999/xlink"><linearGradient id="a" gradientTransform="matrix(.31253 0 0 .125012 -58.875495 26.87757)" gradientUnits="userSpaceOnUse" x1="254" x2="254" y1="233.5" y2="254.666672"><stop offset="0" stop-opacity=".27451"/><stop offset="1" stop-opacity="0"/></linearGradient><linearGradient id="b"><stop offset="0" stop-opacity=".313726"/><stop offset=".222222" stop-opacity=".27451"/><stop offset="1" stop-opacity="0"/></linearGradient><radialGradient id="c" cx="450.908936" cy="189.579361" gradientTransform="matrix(.00000035 -.156265 -.281277 -.0000002 76.477403 127.190665)" gradientUnits="userSpaceOnUse" r="21.166656" xlink:href="#b"/><radialGradient id="d" cx="450.908936" cy="189.579361" gradientTransform="matrix(-.00000035 .156265 .281277 .0000002 -35.463057 -15.054958)" gradientUnits="userSpaceOnUse" r="21.166656" xlink:href="#b"/><radialGradient id="e" cx="450.908936" cy="189.579361" gradientTransform="matrix(-.00000035 -.156265 .281277 -.0000002 -35.463057 127.190665)" gradientUnits="userSpaceOnUse" r="21.166656" xlink:href="#b"/><radialGradient id="f" cx="450.908936" cy="189.579361" gradientTransform="matrix(.00000035 .156265 -.281277 .0000002 76.477399 -15.054959)" gradientUnits="userSpaceOnUse" r="21.166656" xlink:href="#b"/><linearGradient id="g"><stop offset="0" stop-color="#9ccc65"/><stop offset="1" stop-color="#aed581"/></linearGradient><linearGradient id="h" gradientUnits="userSpaceOnUse" x1="21.90606100006" x2="21.90606100006" xlink:href="#g" y1="56.067868" y2="30.93003799997"/><linearGradient id="i" gradientUnits="userSpaceOnUse" x1="43.67102300006" x2="43.67102300006" xlink:href="#g" y1="43.521828" y2="18.38399799997"/><linearGradient id="j" gradientUnits="userSpaceOnUse" x1="21.90606100006" x2="21.90606100006" xlink:href="#g" y1="30.935325" y2="5.79749499997"/><path d="m17.199219 55.871094h6.617187v2.941406h-6.617187zm0 0" fill="url(#a)"/><path d="m23.816406 56.066406h5.289063v-2.644531h-5.289063zm0 0" fill="url(#c)"/><path d="m17.199219 56.066406h-5.292969v2.648438h5.292969zm0 0" fill="url(#d)"/><path d="m17.199219 56.066406h-5.292969v-2.644531h5.292969zm0 0" fill="url(#e)"/><path d="m23.816406 56.066406h5.289063v2.648438h-5.289063zm0 0" fill="url(#f)"/><path d="m6.859375 43.449219c-.007813.414062.097656.820312.300781 1.175781l5.957032 10.320312c.402343.695313 1.144531 1.125 1.949218 1.125h11.914063c.804687 0 1.546875-.429687 1.949219-1.125l5.957031-10.320312c.402343-.695312.402343-1.550781 0-2.246094l-5.957031-10.320312c-.402344-.695313-1.144532-1.125-1.949219-1.125h-11.914063c-.804687 0-1.546875.429687-1.949218 1.125l-5.957032 10.320312c-.1875.324219-.289062.695313-.300781 1.070313zm0 0" fill="url(#h)"/><path d="m15.066406 30.933594c-.804687 0-1.546875.429687-1.949218 1.125l-5.957032 10.320312c-.1875.324219-.289062.695313-.300781 1.070313-.003906.195312.019531.386719.0625.574219.050781-.210938.128906-.414063.238281-.601563l5.957032-10.320313c.402343-.695312 1.144531-1.125 1.949218-1.125h11.914063c.804687 0 1.546875.429688 1.949219 1.125l5.957031 10.320313c.109375.1875.191406.394531.238281.601563.132812-.550782.050781-1.140626-.238281-1.644532l-5.957031-10.320312c-.402344-.695313-1.144532-1.125-1.949219-1.125zm0 0" fill="#fff" fill-opacity=".392157"/><path d="m15.066406 56.066406c-.804687 0-1.546875-.425781-1.949218-1.121094l-5.957032-10.320312c-.1875-.328125-.289062-.695312-.300781-1.070312-.003906-.195313.019531-.386719.0625-.574219.050781.210937.128906.414062.238281.601562l5.957032 10.320313c.402343.695312 1.144531 1.125 1.949218 1.125h11.914063c.804687 0 1.546875-.429688 1.949219-1.125l5.957031-10.320313c.109375-.191406.191406-.394531.238281-.601562.132812.550781.050781 1.140625-.238281 1.644531l-5.957031 10.320312c-.402344.695313-1.144532 1.121094-1.949219 1.121094zm0 0" fill-opacity=".235294"/><path d="m27.80475 132.56056c-.062494 3.312183.781176 6.561873 2.40602 9.405351l47.6517 82.554617c3.218443 5.561969 9.155376 8.999141 15.592261 8.999141h95.303399c6.436885 0 12.373818-3.437172 15.592261-8.999141l47.651699-82.554617c3.218443-5.561968 3.218443-12.405065 0-17.967034l-47.651699-82.554616c-3.218443-5.561969-9.155376-8.999141-15.592261-8.999141h-95.303399c-6.436885 0-12.373818 3.437172-15.592261 8.999141l-47.6517 82.554616c-1.499856 2.593503-2.312279 5.561969-2.40602 8.561683zm0 0" fill="none" stroke="#212121" stroke-linecap="round" stroke-linejoin="round" stroke-width="3" transform="matrix(.125012 0 0 .125012 3.383449 26.877566)"/><path d="m28.625 30.902344c-.007812.414062.09375.820312.300781 1.179687l5.957031 10.316407c.402344.695312 1.144532 1.125 1.949219 1.125h11.914063c.804687 0 1.546875-.429688 1.945312-1.125l5.960938-10.316407c.398437-.695312.398437-1.554687 0-2.25l-5.960938-10.320312c-.398437-.695313-1.140625-1.121094-1.945312-1.121094h-11.914063c-.804687 0-1.546875.425781-1.949219 1.121094l-5.957031 10.320312c-.1875.328125-.292969.695313-.300781 1.070313zm0 0" fill="url(#i)"/><path d="m36.832031 18.390625c-.804687 0-1.546875.425781-1.949219 1.121094l-5.957031 10.320312c-.1875.328125-.292969.695313-.300781 1.070313-.003906.195312.015625.386718.0625.574218.050781-.210937.128906-.414062.238281-.601562l5.957031-10.320312c.402344-.695313 1.144532-1.125 1.949219-1.125h11.914063c.804687 0 1.546875.429687 1.945312 1.125l5.960938 10.320312c.109375.191406.1875.394531.238281.601562.132813-.550781.050781-1.140624-.238281-1.644531l-5.960938-10.320312c-.398437-.695313-1.140625-1.121094-1.945312-1.121094zm0 0" fill="#fff" fill-opacity=".392157"/><path d="m36.832031 43.523438c-.804687 0-1.546875-.429688-1.949219-1.125l-5.957031-10.320313c-.1875-.324219-.292969-.695313-.300781-1.070313-.003906-.195312.015625-.386718.0625-.574218.050781.210937.128906.414062.238281.601562l5.957031 10.320313c.402344.695312 1.144532 1.125 1.949219 1.125h11.914063c.804687 0 1.546875-.429688 1.945312-1.125l5.960938-10.320313c.109375-.1875.1875-.394531.238281-.601562.132813.550781.050781 1.140625-.238281 1.644531l-5.960938 10.320313c-.398437.695312-1.140625 1.125-1.945312 1.125zm0 0" fill-opacity=".235294"/><path d="m27.810058 132.553886c-.062494 3.312184.749929 6.561873 2.40602 9.436599l47.6517 82.523369c3.218442 5.561969 9.155376 8.999141 15.592261 8.999141h95.303399c6.436885 0 12.373818-3.437172 15.561014-8.999141l47.682946-82.523369c3.187196-5.561969 3.187196-12.436313 0-17.998282l-47.682946-82.554616c-3.187196-5.561969-9.124129-8.967894-15.561014-8.967894h-95.303399c-6.436885 0-12.373819 3.405925-15.592261 8.967894l-47.6517 82.554616c-1.499856 2.62475-2.343526 5.561969-2.40602 8.561683zm0 0" fill="none" stroke="#212121" stroke-linecap="round" stroke-linejoin="round" stroke-width="3" transform="matrix(.125012 0 0 .125012 25.148411 14.331526)"/><path d="m6.859375 18.316406c-.007813.414063.097656.820313.300781 1.175782l5.957032 10.320312c.402343.695312 1.144531 1.125 1.949218 1.125h11.914063c.804687 0 1.546875-.429688 1.949219-1.125l5.957031-10.320312c.402343-.695313.402343-1.550782 0-2.246094l-5.957031-10.320313c-.402344-.695312-1.144532-1.125-1.949219-1.125h-11.914063c-.804687 0-1.546875.429688-1.949218 1.125l-5.957032 10.320313c-.1875.324218-.289062.695312-.300781 1.070312zm0 0" fill="url(#j)"/><path d="m15.066406 5.800781c-.804687 0-1.546875.429688-1.949218 1.125l-5.957032 10.320313c-.1875.324218-.289062.695312-.300781 1.070312-.003906.195313.019531.386719.0625.574219.050781-.210937.128906-.414063.238281-.601563l5.957032-10.320312c.402343-.695312 1.144531-1.125 1.949218-1.125h11.914063c.804687 0 1.546875.429688 1.949219 1.125l5.957031 10.320312c.109375.191407.191406.394532.238281.601563.132812-.550781.050781-1.140625-.238281-1.644531l-5.957031-10.320313c-.402344-.695312-1.144532-1.125-1.949219-1.125zm0 0" fill="#fff" fill-opacity=".392157"/><path d="m15.066406 30.933594c-.804687 0-1.546875-.425782-1.949218-1.121094l-5.957032-10.320312c-.1875-.324219-.289062-.695313-.300781-1.070313-.003906-.195313.019531-.386719.0625-.574219.050781.210938.128906.414063.238281.601563l5.957032 10.320312c.402343.695313 1.144531 1.125 1.949218 1.125h11.914063c.804687 0 1.546875-.429687 1.949219-1.125l5.957031-10.320312c.109375-.191407.191406-.394531.238281-.601563.132812.550782.050781 1.140625-.238281 1.644532l-5.957031 10.320312c-.402344.695312-1.144532 1.121094-1.949219 1.121094zm0 0" fill-opacity=".235294"/><path d="m27.80475 132.558411c-.062494 3.312184.781176 6.561874 2.40602 9.405352l47.6517 82.554617c3.218443 5.561968 9.155376 8.99914 15.592261 8.99914h95.303399c6.436885 0 12.373818-3.437172 15.592261-8.99914l47.651699-82.554617c3.218443-5.561969 3.218443-12.405065 0-17.967034l-47.651699-82.554617c-3.218443-5.561968-9.155376-8.99914-15.592261-8.99914h-95.303399c-6.436885 0-12.373818 3.437172-15.592261 8.99914l-47.6517 82.554617c-1.499856 2.593502-2.312279 5.561969-2.40602 8.561682zm0 0" fill="none" stroke="#212121" stroke-linecap="round" stroke-linejoin="round" stroke-width="3" transform="matrix(.125012 0 0 .125012 3.383449 1.745023)"/></svg>

<?xml version="1.0" encoding="UTF-8"?>
<svg xmlns="http://www.w3.org/2000/svg" xmlns:xlink="http://www.w3.org/1999/xlink" width="64pt" height="64pt" viewBox="0 0 64 64" version="1.1">
<defs>
<linearGradient id="linear0" gradientUnits="userSpaceOnUse" x1="254" y1="233.5" x2="254" y2="254.666672" gradientTransform="matrix(0.31253,0,0,0.125012,-58.875495,26.87757)">
<stop offset="0" style="stop-color:rgb(0%,0%,0%);stop-opacity:0.27451;"/>
<stop offset="1" style="stop-color:rgb(0%,0%,0%);stop-opacity:0;"/>
</linearGradient>
<radialGradient id="radial0" gradientUnits="userSpaceOnUse" cx="450.908936" cy="189.579361" fx="450.908936" fy="189.579361" r="21.166656" gradientTransform="matrix(0.000000348341,-0.156265,-0.281277,-0.000000203077,76.477403,127.190665)">
<stop offset="0" style="stop-color:rgb(0%,0%,0%);stop-opacity:0.313726;"/>
<stop offset="0.222222" style="stop-color:rgb(0%,0%,0%);stop-opacity:0.27451;"/>
<stop offset="1" style="stop-color:rgb(0%,0%,0%);stop-opacity:0;"/>
</radialGradient>
<radialGradient id="radial1" gradientUnits="userSpaceOnUse" cx="450.908936" cy="189.579361" fx="450.908936" fy="189.579361" r="21.166656" gradientTransform="matrix(-0.000000348341,0.156265,0.281277,0.000000203077,-35.463057,-15.054958)">
<stop offset="0" style="stop-color:rgb(0%,0%,0%);stop-opacity:0.313726;"/>
<stop offset="0.222222" style="stop-color:rgb(0%,0%,0%);stop-opacity:0.27451;"/>
<stop offset="1" style="stop-color:rgb(0%,0%,0%);stop-opacity:0;"/>
</radialGradient>
<radialGradient id="radial2" gradientUnits="userSpaceOnUse" cx="450.908936" cy="189.579361" fx="450.908936" fy="189.579361" r="21.166656" gradientTransform="matrix(-0.000000348341,-0.156265,0.281277,-0.000000203077,-35.463057,127.190665)">
<stop offset="0" style="stop-color:rgb(0%,0%,0%);stop-opacity:0.313726;"/>
<stop offset="0.222222" style="stop-color:rgb(0%,0%,0%);stop-opacity:0.27451;"/>
<stop offset="1" style="stop-color:rgb(0%,0%,0%);stop-opacity:0;"/>
</radialGradient>
<radialGradient id="radial3" gradientUnits="userSpaceOnUse" cx="450.908936" cy="189.579361" fx="450.908936" fy="189.579361" r="21.166656" gradientTransform="matrix(0.000000348341,0.156265,-0.281277,0.000000203077,76.477399,-15.054959)">
<stop offset="0" style="stop-color:rgb(0%,0%,0%);stop-opacity:0.313726;"/>
<stop offset="0.222222" style="stop-color:rgb(0%,0%,0%);stop-opacity:0.27451;"/>
<stop offset="1" style="stop-color:rgb(0%,0%,0%);stop-opacity:0;"/>
</radialGradient>
<linearGradient id="linear1" gradientUnits="userSpaceOnUse" x1="148.166672" y1="233.5" x2="148.166672" y2="32.416664" gradientTransform="matrix(0.125012,0,0,0.125012,3.383449,26.877566)">
<stop offset="0" style="stop-color:rgb(61.176473%,80.000001%,39.607844%);stop-opacity:1;"/>
<stop offset="1" style="stop-color:rgb(68.235296%,83.529413%,50.588238%);stop-opacity:1;"/>
</linearGradient>
<linearGradient id="linear2" gradientUnits="userSpaceOnUse" x1="148.166672" y1="233.5" x2="148.166672" y2="32.416664" gradientTransform="matrix(0.125012,0,0,0.125012,25.148411,14.331526)">
<stop offset="0" style="stop-color:rgb(61.176473%,80.000001%,39.607844%);stop-opacity:1;"/>
<stop offset="1" style="stop-color:rgb(68.235296%,83.529413%,50.588238%);stop-opacity:1;"/>
</linearGradient>
<linearGradient id="linear3" gradientUnits="userSpaceOnUse" x1="148.166672" y1="233.5" x2="148.166672" y2="32.416664" gradientTransform="matrix(0.125012,0,0,0.125012,3.383449,1.745023)">
<stop offset="0" style="stop-color:rgb(61.176473%,80.000001%,39.607844%);stop-opacity:1;"/>
<stop offset="1" style="stop-color:rgb(68.235296%,83.529413%,50.588238%);stop-opacity:1;"/>
</linearGradient>
</defs>
<g id="surface1">
<path style=" stroke:none;fill-rule:nonzero;fill:url(#linear0);" d="M 17.199219 55.871094 L 23.816406 55.871094 L 23.816406 58.8125 L 17.199219 58.8125 Z M 17.199219 55.871094 "/>
<path style=" stroke:none;fill-rule:nonzero;fill:url(#radial0);" d="M 23.816406 56.066406 L 29.105469 56.066406 L 29.105469 53.421875 L 23.816406 53.421875 Z M 23.816406 56.066406 "/>
<path style=" stroke:none;fill-rule:nonzero;fill:url(#radial1);" d="M 17.199219 56.066406 L 11.90625 56.066406 L 11.90625 58.714844 L 17.199219 58.714844 Z M 17.199219 56.066406 "/>
<path style=" stroke:none;fill-rule:nonzero;fill:url(#radial2);" d="M 17.199219 56.066406 L 11.90625 56.066406 L 11.90625 53.421875 L 17.199219 53.421875 Z M 17.199219 56.066406 "/>
<path style=" stroke:none;fill-rule:nonzero;fill:url(#radial3);" d="M 23.816406 56.066406 L 29.105469 56.066406 L 29.105469 58.714844 L 23.816406 58.714844 Z M 23.816406 56.066406 "/>
<path style=" stroke:none;fill-rule:nonzero;fill:url(#linear1);" d="M 6.859375 43.449219 C 6.851562 43.863281 6.957031 44.269531 7.160156 44.625 L 13.117188 54.945312 C 13.519531 55.640625 14.261719 56.070312 15.066406 56.070312 L 26.980469 56.070312 C 27.785156 56.070312 28.527344 55.640625 28.929688 54.945312 L 34.886719 44.625 C 35.289062 43.929688 35.289062 43.074219 34.886719 42.378906 L 28.929688 32.058594 C 28.527344 31.363281 27.785156 30.933594 26.980469 30.933594 L 15.066406 30.933594 C 14.261719 30.933594 13.519531 31.363281 13.117188 32.058594 L 7.160156 42.378906 C 6.972656 42.703125 6.871094 43.074219 6.859375 43.449219 Z M 6.859375 43.449219 "/>
<path style=" stroke:none;fill-rule:nonzero;fill:rgb(100%,100%,100%);fill-opacity:0.392157;" d="M 15.066406 30.933594 C 14.261719 30.933594 13.519531 31.363281 13.117188 32.058594 L 7.160156 42.378906 C 6.972656 42.703125 6.871094 43.074219 6.859375 43.449219 C 6.855469 43.644531 6.878906 43.835938 6.921875 44.023438 C 6.972656 43.8125 7.050781 43.609375 7.160156 43.421875 L 13.117188 33.101562 C 13.519531 32.40625 14.261719 31.976562 15.066406 31.976562 L 26.980469 31.976562 C 27.785156 31.976562 28.527344 32.40625 28.929688 33.101562 L 34.886719 43.421875 C 34.996094 43.609375 35.078125 43.816406 35.125 44.023438 C 35.257812 43.472656 35.175781 42.882812 34.886719 42.378906 L 28.929688 32.058594 C 28.527344 31.363281 27.785156 30.933594 26.980469 30.933594 Z M 15.066406 30.933594 "/>
<path style=" stroke:none;fill-rule:nonzero;fill:rgb(0%,0%,0%);fill-opacity:0.235294;" d="M 15.066406 56.066406 C 14.261719 56.066406 13.519531 55.640625 13.117188 54.945312 L 7.160156 44.625 C 6.972656 44.296875 6.871094 43.929688 6.859375 43.554688 C 6.855469 43.359375 6.878906 43.167969 6.921875 42.980469 C 6.972656 43.191406 7.050781 43.394531 7.160156 43.582031 L 13.117188 53.902344 C 13.519531 54.597656 14.261719 55.027344 15.066406 55.027344 L 26.980469 55.027344 C 27.785156 55.027344 28.527344 54.597656 28.929688 53.902344 L 34.886719 43.582031 C 34.996094 43.390625 35.078125 43.1875 35.125 42.980469 C 35.257812 43.53125 35.175781 44.121094 34.886719 44.625 L 28.929688 54.945312 C 28.527344 55.640625 27.785156 56.066406 26.980469 56.066406 Z M 15.066406 56.066406 "/>
<path style="fill:none;stroke-width:3;stroke-linecap:round;stroke-linejoin:round;stroke:rgb(12.941177%,12.941177%,12.941177%);stroke-opacity:1;stroke-miterlimit:4;" d="M 27.80475 132.56056 C 27.742256 135.872743 28.585926 139.122433 30.21077 141.965911 L 77.86247 224.520528 C 81.080913 230.082497 87.017846 233.519669 93.454731 233.519669 L 188.75813 233.519669 C 195.195015 233.519669 201.131948 230.082497 204.350391 224.520528 L 252.00209 141.965911 C 255.220533 136.403943 255.220533 129.560846 252.00209 123.998877 L 204.350391 41.444261 C 201.131948 35.882292 195.195015 32.44512 188.75813 32.44512 L 93.454731 32.44512 C 87.017846 32.44512 81.080913 35.882292 77.86247 41.444261 L 30.21077 123.998877 C 28.710914 126.59238 27.898491 129.560846 27.80475 132.56056 Z M 27.80475 132.56056 " transform="matrix(0.125012,0,0,0.125012,3.383449,26.877566)"/>
<path style=" stroke:none;fill-rule:nonzero;fill:url(#linear2);" d="M 28.625 30.902344 C 28.617188 31.316406 28.71875 31.722656 28.925781 32.082031 L 34.882812 42.398438 C 35.285156 43.09375 36.027344 43.523438 36.832031 43.523438 L 48.746094 43.523438 C 49.550781 43.523438 50.292969 43.09375 50.691406 42.398438 L 56.652344 32.082031 C 57.050781 31.386719 57.050781 30.527344 56.652344 29.832031 L 50.691406 19.511719 C 50.292969 18.816406 49.550781 18.390625 48.746094 18.390625 L 36.832031 18.390625 C 36.027344 18.390625 35.285156 18.816406 34.882812 19.511719 L 28.925781 29.832031 C 28.738281 30.160156 28.632812 30.527344 28.625 30.902344 Z M 28.625 30.902344 "/>
<path style=" stroke:none;fill-rule:nonzero;fill:rgb(100%,100%,100%);fill-opacity:0.392157;" d="M 36.832031 18.390625 C 36.027344 18.390625 35.285156 18.816406 34.882812 19.511719 L 28.925781 29.832031 C 28.738281 30.160156 28.632812 30.527344 28.625 30.902344 C 28.621094 31.097656 28.640625 31.289062 28.6875 31.476562 C 28.738281 31.265625 28.816406 31.0625 28.925781 30.875 L 34.882812 20.554688 C 35.285156 19.859375 36.027344 19.429688 36.832031 19.429688 L 48.746094 19.429688 C 49.550781 19.429688 50.292969 19.859375 50.691406 20.554688 L 56.652344 30.875 C 56.761719 31.066406 56.839844 31.269531 56.890625 31.476562 C 57.023438 30.925781 56.941406 30.335938 56.652344 29.832031 L 50.691406 19.511719 C 50.292969 18.816406 49.550781 18.390625 48.746094 18.390625 Z M 36.832031 18.390625 "/>
<path style=" stroke:none;fill-rule:nonzero;fill:rgb(0%,0%,0%);fill-opacity:0.235294;" d="M 36.832031 43.523438 C 36.027344 43.523438 35.285156 43.09375 34.882812 42.398438 L 28.925781 32.078125 C 28.738281 31.753906 28.632812 31.382812 28.625 31.007812 C 28.621094 30.8125 28.640625 30.621094 28.6875 30.433594 C 28.738281 30.644531 28.816406 30.847656 28.925781 31.035156 L 34.882812 41.355469 C 35.285156 42.050781 36.027344 42.480469 36.832031 42.480469 L 48.746094 42.480469 C 49.550781 42.480469 50.292969 42.050781 50.691406 41.355469 L 56.652344 31.035156 C 56.761719 30.847656 56.839844 30.640625 56.890625 30.433594 C 57.023438 30.984375 56.941406 31.574219 56.652344 32.078125 L 50.691406 42.398438 C 50.292969 43.09375 49.550781 43.523438 48.746094 43.523438 Z M 36.832031 43.523438 "/>
<path style="fill:none;stroke-width:3;stroke-linecap:round;stroke-linejoin:round;stroke:rgb(12.941177%,12.941177%,12.941177%);stroke-opacity:1;stroke-miterlimit:4;" d="M 27.810058 132.553886 C 27.747564 135.86607 28.559987 139.115759 30.216078 141.990485 L 77.867778 224.513854 C 81.08622 230.075823 87.023154 233.512995 93.460039 233.512995 L 188.763438 233.512995 C 195.200323 233.512995 201.137256 230.075823 204.324452 224.513854 L 252.007398 141.990485 C 255.194594 136.428516 255.194594 129.554172 252.007398 123.992203 L 204.324452 41.437587 C 201.137256 35.875618 195.200323 32.469693 188.763438 32.469693 L 93.460039 32.469693 C 87.023154 32.469693 81.08622 35.875618 77.867778 41.437587 L 30.216078 123.992203 C 28.716222 126.616953 27.872552 129.554172 27.810058 132.553886 Z M 27.810058 132.553886 " transform="matrix(0.125012,0,0,0.125012,25.148411,14.331526)"/>
<path style=" stroke:none;fill-rule:nonzero;fill:url(#linear3);" d="M 6.859375 18.316406 C 6.851562 18.730469 6.957031 19.136719 7.160156 19.492188 L 13.117188 29.8125 C 13.519531 30.507812 14.261719 30.9375 15.066406 30.9375 L 26.980469 30.9375 C 27.785156 30.9375 28.527344 30.507812 28.929688 29.8125 L 34.886719 19.492188 C 35.289062 18.796875 35.289062 17.941406 34.886719 17.246094 L 28.929688 6.925781 C 28.527344 6.230469 27.785156 5.800781 26.980469 5.800781 L 15.066406 5.800781 C 14.261719 5.800781 13.519531 6.230469 13.117188 6.925781 L 7.160156 17.246094 C 6.972656 17.570312 6.871094 17.941406 6.859375 18.316406 Z M 6.859375 18.316406 "/>
<path style=" stroke:none;fill-rule:nonzero;fill:rgb(100%,100%,100%);fill-opacity:0.392157;" d="M 15.066406 5.800781 C 14.261719 5.800781 13.519531 6.230469 13.117188 6.925781 L 7.160156 17.246094 C 6.972656 17.570312 6.871094 17.941406 6.859375 18.316406 C 6.855469 18.511719 6.878906 18.703125 6.921875 18.890625 C 6.972656 18.679688 7.050781 18.476562 7.160156 18.289062 L 13.117188 7.96875 C 13.519531 7.273438 14.261719 6.84375 15.066406 6.84375 L 26.980469 6.84375 C 27.785156 6.84375 28.527344 7.273438 28.929688 7.96875 L 34.886719 18.289062 C 34.996094 18.480469 35.078125 18.683594 35.125 18.890625 C 35.257812 18.339844 35.175781 17.75 34.886719 17.246094 L 28.929688 6.925781 C 28.527344 6.230469 27.785156 5.800781 26.980469 5.800781 Z M 15.066406 5.800781 "/>
<path style=" stroke:none;fill-rule:nonzero;fill:rgb(0%,0%,0%);fill-opacity:0.235294;" d="M 15.066406 30.933594 C 14.261719 30.933594 13.519531 30.507812 13.117188 29.8125 L 7.160156 19.492188 C 6.972656 19.167969 6.871094 18.796875 6.859375 18.421875 C 6.855469 18.226562 6.878906 18.035156 6.921875 17.847656 C 6.972656 18.058594 7.050781 18.261719 7.160156 18.449219 L 13.117188 28.769531 C 13.519531 29.464844 14.261719 29.894531 15.066406 29.894531 L 26.980469 29.894531 C 27.785156 29.894531 28.527344 29.464844 28.929688 28.769531 L 34.886719 18.449219 C 34.996094 18.257812 35.078125 18.054688 35.125 17.847656 C 35.257812 18.398438 35.175781 18.988281 34.886719 19.492188 L 28.929688 29.8125 C 28.527344 30.507812 27.785156 30.933594 26.980469 30.933594 Z M 15.066406 30.933594 "/>
<path style="fill:none;stroke-width:3;stroke-linecap:round;stroke-linejoin:round;stroke:rgb(12.941177%,12.941177%,12.941177%);stroke-opacity:1;stroke-miterlimit:4;" d="M 27.80475 132.558411 C 27.742256 135.870595 28.585926 139.120285 30.21077 141.963763 L 77.86247 224.51838 C 81.080913 230.080348 87.017846 233.51752 93.454731 233.51752 L 188.75813 233.51752 C 195.195015 233.51752 201.131948 230.080348 204.350391 224.51838 L 252.00209 141.963763 C 255.220533 136.401794 255.220533 129.558698 252.00209 123.996729 L 204.350391 41.442112 C 201.131948 35.880144 195.195015 32.442972 188.75813 32.442972 L 93.454731 32.442972 C 87.017846 32.442972 81.080913 35.880144 77.86247 41.442112 L 30.21077 123.996729 C 28.710914 126.590231 27.898491 129.558698 27.80475 132.558411 Z M 27.80475 132.558411 " transform="matrix(0.125012,0,0,0.125012,3.383449,1.745023)"/>
</g>
</svg>
